icons/filled/barrier-block.svg

<svg xmlns="http://www.w3.org/2000/svg" width="24" height="24" viewBox="0 0 24 24" fill="currentColor"><path d="M15 21a1 1 0 0 1 0 -2h1v-2h-8v2h1a1 1 0 0 1 0 2h-4a1 1 0 0 1 0 -2h1v-2h-1a2 2 0 0 1 -2 -2v-7a2 2 0 0 1 2 -2h1v-1a1 1 0 1 1 2 0v1h8v-1a1 1 0 0 1 2 0v1h1a2 2 0 0 1 2 2v7a2 2 0 0 1 -2 2h-1v2h1a1 1 0 0 1 0 2zm-2.086 -13l-7 7h4.17l6.916 -7zm6.086 2.914l-4.086 4.086h4.086zm-10.916 -2.914h-3.084v3.084z"/></svg>

<svg xmlns="http://www.w3.org/2000/svg" width="24" height="24" fill="currentColor"><path d="M15 21a1 1 0 0 1 0-2h1v-2H8v2h1a1 1 0 0 1 0 2H5a1 1 0 0 1 0-2h1v-2H5a2 2 0 0 1-2-2V8a2 2 0 0 1 2-2h1V5a1 1 0 1 1 2 0v1h8V5a1 1 0 0 1 2 0v1h1a2 2 0 0 1 2 2v7a2 2 0 0 1-2 2h-1v2h1a1 1 0 0 1 0 2zM12.914 8l-7 7h4.17L17 8zM19 10.914 14.914 15H19zM8.084 8H5v3.084z"/></svg>
